!!!OTL: Fuair mise P&oacute;igín, S. 163
!!!id: I0556
**kern
*clefG2
*k[b-]
*F:
{16a
16b-
=1
4cc
8b-
8a
4b-
8.c
16c
=2
4f
4f
4f
8f}
=3
{16f
16g
=4
4a
8g
8a
4b-
8b-
8cc
=5
4dd
4b
4cc
8cc}
=6
{16f
16g
=7
4a
8g
8a
4b-
8b-
8cc
=8
4dd
4b
4cc
8cc}
=9
{16cc
16b-
=10
4a
8a
8f
4g
8e
8c
=11
4f
4f
4f
8f}
=12
{16f
16g
=13
4a
8g
8a
4b-
8b-
8cc
=14
4dd
4b
4cc
8cc}
=15
{16cc
16b-
=16
4a
8a
8f
4g
8e
8c
=17
4f
4f
4f
8f}
==
*-
!!!minrhy: 16
!!!meters: 4/4 ]  ZZ[6
!!!cut: Fuair mise P&oacute;igín, S. 163
!!!reg: Irland
!!!trd: O'SULLIVAN, Donal: Song of the Irish
!!!rhy1: XX  X__X_X_X__X_.X  X__X__X__X_
!!!rhy2: XX  X__X_X_X__X_X_  X__X__X__X_
!!!key: I0556  16  F 4/4 ]  ZZ[6
!!!mod: ACHTTONSKALA DUR ?]  AMBITUS[9
!!!kad: 155151
!!!akz: 5411_3465_3465_3211_3465_3211_
!!!fot: 'a__b__b__c__b__c__
!!!for: 'a__b__b__b__b__b__
!!!fok: '~d_/__/__Vd_/__Vd_
!! PHRAS[AUFTAKTIG]
!!!fkt: ???, betrogene Liebe, Untreue
!! IRISCHE V
!! PR[15] 2K[0] 2G[26] 3K[7] 3G[0] 4A[5] 4Ü[0] 5A[0] 6K[0] 6G[0]
!! 7K[0] 7G[0] 8A[2] MEHR[0] SI[39] ABS[61] SR[26] SP[13]
!! ST[16] 2k[2] 2g[25] 3k[8] 3g[2] 4d[7] 4ü[2] 5d[2] 6k[0] 6g[0]
!! 7k[0] 7g[0] 8d[0] mehr[0] si[46] dm[-7] sr[26] sp[20]
!! 1F[11] 2F[31] 3F[30] 4F[3] LF[0] 2P[8] 3P[8] 4P[0] TRI[0] DF[7] AB[64]
!! TF[0] U3K[0] U3[0] U4[0] U4Ü[0] U5[0] U6K[0] U6[0] U7K[0] U7[0]
!! N1[16] N2K[0] N2[11] N3K[0] N3[0] N4[18] N4Ü[0] N5[21] N6K[0] N6[11]
!!!n7k: 5] N7[2] O1[15] O2K[0] O2[2] O3K[0] O3[0] HÖ[0
!!!RNB: symbol: &oacute;= o acute  (UTF-8: Ã³)
